!!!!SEGMENT: d-b--slg-bohn-ms-mus-111--028_jarzebski-adam--canzoni-e-concerti-28-canzon-quinta.krn
!!!cenid: 16xx:1801
!!!COM: Jarzębski, Adam
!!!COM-rismID: pe30017782
!!!CDT:
!!!CNT:
!!!GTL: Canzoni e Concerti
!!!OTL: 28. Canzon Quinta
!!!PDT: 1627
!!!AGN:
!!!SMS-siglum: D-B
!!!SMS-shelfmark: Slg Bohn Ms.mus. 111
!!!SMS-shelfwork: 028 G
!!!SMS-variant:
!!!SMS-altvar:
!!!NIFC-rismSourceID: 1001062014
!!!NIFC-rismChildID: 1001062014
!!!NIFC-islandoraID:
!!!URL-pdf-islandora:
!!!URL-scan: https://digital.staatsbibliothek-berlin.de/werkansicht/?PPN=PPN1049147219
!!!ONB-nifc: UWAGA: Prima vox: s. 42, Seconda vox: s. 102, Bassus sive Vox Tertia: s. 141, Basso: s. 186, Basso continuo: s. 217. Uwaga: proszę wpisywać partie tylko występujące w danym koncercie i nazywać partie wg określeń podawanych przy danym utworze. Kody instr. dla humdrumowców podane zostaną na forum.
!!!AIN: 1 bass 3 vox
!!!key: G
**kern	**fba	**kern	**kern	**kern	**kern
*part5	*part5	*part4	*part3	*part2	*part1
*staff5	*	*staff4	*staff3	*staff2	*staff1
*I"Baſso Continuo	*	*I"Baſso	*I"Tertia Vox.	*I"Seconda Vox.	*I"Prima Vox
*I'bc	*	*I'B	*I'V 3	*I'V 2	*I'V 1
*	*	*ICvox	*ICvox	*ICvox	*ICvox
*	*	*Ibass	*Ivox	*Ivox	*Ivox
*IGcont	*	*	*	*	*
*clefC3	*	*clefC4	*clefC4	*clefC3	*clefG2
*	*	*mclefF4	*mclefGv2	*mclefG2	*
*k[]	*	*k[]	*k[]	*k[]	*k[]
*G:	*	*G:	*G:	*G:	*G:
*M2/2	*	*M2/2	*M2/2	*M2/2	*M2/2
*met(C|)	*	*met(C|)	*met(C|)	*met(C|)	*met(C|)
=1-	=1-	=1-	=1-	=1-	=1-
!LO:TX:t=P:problem: all\right or middle	!	!	!	!	!
*2\right	*	*	*	*	*
2g\	.	1r	1r	4r	2g/
.	.	.	.	4g\	.
4g\	.	.	.	4g\	4b/
!	!	!	!	!	!LO:TX:t=P:problem:all/right:global
4e\	6	.	.	4e\	4cc\
=2-	=2-	=2-	=2-	=2-	=2-
*	*	*	*	*2\right	*2\right
4d\	.	4r	4r	2d\	2dd\
*clefF4	*	*	*	*	*
4D\	.	4A/	4d\	.	.
!	!	!	!	!	!LO:TX:t=P:problem:kreska pseudotaktowa
4E\	6	4B\	4c\	2r	2r
!LO:TX:t=P:problem:kreska pseudotaktowa	!	!	!	!	!
4F#X\	.	4c#X\	4A/	.	.
=3-	=3-	=3-	=3-	=3-	=3-
4G\	.	4d\	1G	1r	4r
4GG/	.	4D/	.	.	4g/
4G\	.	4d\	.	.	4b/
4E\	6	4B\	.	.	4cc\
=4-	=4-	=4-	=4-	=4-	=4-
2D/	#	2A/	4r	4r	2dd\
.	.	.	4d\	4d\	.
!	!	!	!	!LO:TX:t=P:problem:# above	!
4D/	.	4r	4d\	4f#Xi\	2r
!LO:TX:t=P:problem:kreska pseudotaktowa	!	!	!	!LO:TX:t=P:problem:# above	!
4E\	.	4B\	4B\	4g#Xi\	.
=5-	=5-	=5-	=5-	=5-	=5-
4.AA/	.	4.E/	2A/	2a\	8r
.	.	.	.	.	8a/L
.	.	.	.	.	8cc/
8BB/	.	8F/	.	.	8dd/J
!	!	!	!	!	!LO:TX:t=P:problem:kreska pseudotaktowa
2C/	.	2G/	2r	8r	2ee\
.	.	.	.	8c\L	.
.	.	.	.	8e\	.
!	!	!	!	!LO:TX:t=P:problem:kreska pseudotaktowa	!
.	.	.	.	8fny\J	.
=6-	=6-	=6-	=6-	=6-	=6-
!LO:TX:t=P:problem:kreska pseudotaktowa	!	!	!	!	!
1GG	.	1D	4r	4.gny\	8r
.	.	.	.	.	8g/L
.	.	.	4G/	.	8b/
.	.	.	.	16f\LL	8cc/J
.	.	.	.	16e\JJ	.
.	.	.	4B\	4d\	4dd\
.	.	.	4c\	4e\	8cc\L
!	!	!	!	!	!LO:TX:t=P:problem:kreska pseudotaktowa
.	.	.	.	.	8b\J
*	*	*	*	*	*custos:a
!	!	!	!	!	!LO:LB:g=original
=7-	=7-	=7-	=7-	=7-	=7-
2D/	.	4r	1d	2f\	8a/
.	.	.	.	.	8dd\L
.	.	4A/	.	.	8ff\
.	.	.	.	.	8gg\J
4Fny\	6	4cny\	.	8r	4aa\
.	.	.	.	8f\L	.
4G\	.	4d\	.	8e\	8gg\L
.	.	.	.	8d\J	8ff\J
*custos:A	*	*	*	*custos:c	*
!LO:LB:g=original	!	!	!	!LO:LB:g=original	!
=8-	=8-	=8-	=8-	=8-	=8-
*	*	*2\right	*	*	*
2A\	.	2e\	8r	1c	2ee\
.	.	.	8A\L	.	.
!	!	!	!LO:TX:a:t=c:mod=	!	!
.	.	.	8c\	.	.
!	!	!	!LO:TX:a:t=d:mod=	!	!
.	.	.	8d\J	.	.
*	*	*custos:G	*2\right	*	*
!	!	!LO:LB:g=original	!	!	!
8AA/L	.	8r	2e\	.	4r
8C/J	.	8G/	.	.	.
8E\L	6	8B\L	.	.	4g/
!LO:TX:t=P:problem:kreska pseudotaktowa	!	!	!	!	!
8F\J	.	8c\J	.	.	.
=9-	=9-	=9-	=9-	=9-	=9-
2.G\	.	2d\	4r	1r	4.b/
.	.	.	4G/	.	.
.	.	.	.	.	8cc\
*	*	*	*custos:B	*	*
!	!	!	!LO:LB:g=original	!	!
.	.	8r	4B\	.	2dd\
.	.	8d\L	.	.	.
8F\L	.	8c\	4c\	.	.
8E\J	.	8B\J	.	.	.
=10-	=10-	=10-	=10-	=10-	=10-
2.D/	.	2A/	4d\	8r	2r
.	.	.	.	8d\L	.
.	.	.	4D/	8f\	.
.	.	.	.	8g\J	.
.	.	8r	4F/	2a\	8r
.	.	8A/L	.	.	8ff\L
8C/L	.	8G/	4G/	.	8ee\
!LO:TX:t=P:problem:kreska pseudotaktowa	!	!	!	!	!LO:TX:t=P:problem:kreska pseudotaktowa
8BB/J	.	8F/J	.	.	8dd\J
=11-	=11-	=11-	=11-	=11-	=11-
4AA/	.	4E/	2A/	8r	2cc\
.	.	.	.	8a\L	.
4BB/	.	4F/	.	8g\	.
.	.	.	.	8f\J	.
4C/	.	4G/	2r	4e\	8r
.	.	.	.	.	8ee\L
8BB/L	.	8F/L	.	4f#X\	8dd\
!	!	!	!	!	!LO:TX:t=P:problem:kreska pseudotaktowa
8AA/J	.	8E/J	.	.	8cc\J
=12-	=12-	=12-	=12-	=12-	=12-
2.GG/	.	2D/	8r	8g\L	2b/
.	.	.	8G/L	8e\	.
.	.	.	8F/	8d\	.
.	.	.	8E/J	8c\J	.
.	.	8r	4D/	4B/	8r
.	.	8D/L	.	.	8b/L
8FF/L	.	8C/	2A/	4c/	8a/
!LO:TX:t=P:problem:kreska pseudotaktowa	!	!	!	!	!
8EE/J	.	8BB/J	.	.	8g/J
=13-	=13-	=13-	=13-	=13-	=13-
2DD/	#	2AA/	.	1d	2f#X/
.	.	.	4A/	.	.
2GG/	-	2D/	2B-X\	.	1g
=14-	=14-	=14-	=14-	=14-	=14-
!LO:TX:t=P:problem:kreska pseudotaktowa	!	!	!	!	!
1DD	4#r	1AA	1A	4r	.
.	.	.	.	4e\	.
!	!	!	!	!	!LO:TX:t=P:problem:# above
.	.	.	.	4d\	2f#X/
.	.	.	.	4c/	.
=15-	=15-	=15-	=15-	=15-	=15-
2GG/	.	4D/	1G	1B	2g/
.	.	4d\	.	.	.
2G\	.	4.d\	.	.	8r
.	.	.	.	.	8g/L
.	.	.	.	.	8b/
.	.	16c\LL	.	.	8cc/J
.	.	16B\JJ	.	.	.
=16-	=16-	=16-	=16-	=16-	=16-
2D/	.	4.A/	1r	8r	2dd\
.	.	.	.	8d\L	.
.	.	.	.	8fny\	.
.	.	16G/LL	.	8g\J	.
.	.	16F/JJ	.	.	.
!	!	!	!	!LO:TX:t=P:problem:kreska pseudotaktowa	!
4AA/	.	4E/	.	2a\	8r
.	.	.	.	.	8cc\L
!LO:TX:t=P:problem:kreska pseudotaktowa	!	!	!	!	!
4C/	6	4G/	.	.	8ee\
.	.	.	.	.	8ff\J
*	*	*custos:D	*	*	*custos:gg
!	!	!LO:LB:g=original	!	!	!LO:LB:g=original
=17-	=17-	=17-	=17-	=17-	=17-
2GG/	.	2D/	8r	8r	2gg\
.	.	.	8G/	8g\L	.
.	.	.	8Bny\L	8d\	.
.	.	.	8c\J	8e\J	.
*	*	*	*	*custos:f	*
!	!	!	!	!LO:LB:g=original	!
4D/	.	8r	2d\	2f\	8r
.	.	8A\L	.	.	8dd\L
8E\L	6	8c\	.	.	8cc\
!	!	!	!	!	!LO:TX:t=P:problem:kreska pseudotaktowa
8G\J	.	8d\J	.	.	8b\J
=18-	=18-	=18-	=18-	=18-	=18-
2A\	.	2e\	8r	8r	2a/
.	.	.	8A\L	8c\L	.
.	.	.	8c\	8e\	.
.	.	.	8d\J	8f\J	.
!LO:TX:b:t=C:mod=	!	!	!	!LO:TX:t=P:problem:kreska pseudotaktowa	!
4C/	.	8r	4.e\	2g\	2r
.	.	8G\L	.	.	.
8E\L	6	8B\	.	.	.
!LO:TX:t=P:problem:kreska pseudotaktowa	!	!	!	!	!
8F\J	.	8c\J	16d\LL	.	.
.	.	.	16c\JJ	.	.
*custos:G	*	*	*custos:B	*	*
!LO:LB:g=original	!	!	!LO:LB:g=original	!	!
=19-	=19-	=19-	=19-	=19-	=19-
2G\	.	2d\	4.B\	4r	8r
.	.	.	.	.	8g/L
.	.	.	.	4G/	8b/
.	.	.	8A/	.	8cc/J
!	!	!	!	!	!LO:TX:t=P:problem:kreska pseudotaktowa
4GG/	.	8r	2G/	8.B/L	2dd\
.	.	8D/L	.	.	.
.	.	.	.	16c/Jk	.
!	!	!	!	!LO:TX:t=P:problem:kreska pseudotaktowa	!
8BB/L	6	8F/	.	4d\	.
8C/J	.	8G/J	.	.	.
=20-	=20-	=20-	=20-	=20-	=20-
2D/	.	2A/	2r	4r	8r
.	.	.	.	.	8dd\L
.	.	.	.	8d\L	8ff\
.	.	.	.	8e\J	8gg\J
!	!	!	!	!	!LO:TX:t=P:problem:kreska pseudotaktowa
4D/	.	8r	4r	8.f\L	2aa\
.	.	8A\L	.	.	.
.	.	.	.	16g\Jk	.
!	!	!	!	!LO:TX:t=P:problem:kreska pseudotaktowa	!
8F\L	6	8c\	8A\L	4a\	.
!LO:TX:t=P:problem:kreska pseudotaktowa	!	!	!LO:TX:t=P:problem:kreska pseudotaktowa	!	!
8G\J	.	8d\J	8B\J	.	.
=21-	=21-	=21-	=21-	=21-	=21-
1A	.	0e	8.c\L	4r	8r
.	.	.	.	.	8a/
.	.	.	16d\Jk	.	.
.	.	.	4e\	8A/L	8cc\L
.	.	.	.	8B/J	8dd\J
.	.	.	8r	8.c/L	4ee\
.	.	.	8A\L	.	.
.	.	.	.	16d/Jk	.
!	!	!	!	!LO:TX:t=P:problem:kreska pseudotaktowa	!
.	.	.	8c\	4e\	8.a/L
!	!	!	!LO:TX:t=P:problem:kreska pseudotaktowa	!	!
.	.	.	8d\J	.	.
!	!	!	!	!	!LO:TX:t=P:problem:kreska pseudotaktowa
.	.	.	.	.	16b/Jk
=22-	=22-	=22-	=22-	=22-	=22-
!LO:TX:t=P:problem:kreska pseudotaktowa	!	!	!	!	!
[1AA	.	.	4e\	8r	8.cc\L
.	.	.	.	8A/L	.
.	.	.	.	.	16dd\Jk
.	.	.	8A\L	8c/	4ee\
.	.	.	8B\J	8d/J	.
.	.	.	8c\L	2.e\	4r
.	.	.	8A\	.	.
.	.	.	8c\	.	8a/L
!	!	!	!	!	!LO:TX:t=P:problem:kreska pseudotaktowa
.	.	.	8d\J	.	8b/J
*	*	*	*	*	*custos:cc#
!	!	!	!	!	!LO:LB:g=original
=23-	=23-	=23-	=23-	=23-	=23-
1AA]	3:4#r	8r	4e\	.	4cc#X\
.	.	8e\L	.	.	.
.	.	8c\	2d\	4f\	4dd\
.	.	8d\J	.	.	.
!	!	!	!	!	!LO:TX:t=P:problem:mixed beam
.	.	2e\	.	2e\	8a/L
.	.	.	.	.	8aa\
.	.	.	4c#X\	.	8aa\
.	.	.	.	.	8gg\J
*	*	*	*	*custos:d	*
!	!	!	!	!LO:LB:g=original	!
=24-	=24-	=24-	=24-	=24-	=24-
!LO:TX:t=P:problem:kreska pseudotaktowa	!	!	!	!	!
1D	#	1A	1d	1d	1ff#X
=25-	=25-	=25-	=25-	=25-	=25-
*M3/2	*	*M3/2	*M3/2	*M3/2	*M3/2
*met(3)	*	*met(3)	*met(3)	*met(3)	*met(3)
1D	#	1A	1r	2f#X\	4dd\
.	.	.	.	.	4ee\
!	!	!	!	!	!LO:TX:t=P:problem:# above
.	.	.	.	4d\	4ff#Xi\
.	.	.	.	4e\	4gg\
!	!	!	!LO:TX:t=P:problem:brak kropki przy pauzie	!	!
2D/	.	2A/	2ryy	4f#X\	4aa\
!	!	!	!	!LO:TX:t=P:problem:kreska pseudotaktowa	!LO:TX:t=P:problem:kreska pseudotaktowa
.	.	.	.	4g\	4bb\
*	*	*custos:A	*	*	*
!	!	!LO:LB:g=original	!	!	!
=26-	=26-	=26-	=26-	=26-	=26-
!LO:TX:t=P:problem:kreska pseudotaktowa	!	!	!	!	!
1.D	.	1.A	4D/	2f#X\	1aa
.	.	.	4E/	.	.
!	!	!	!LO:TX:t=P:problem:# below	!	!
.	.	.	4F#X/	4d\	.
.	.	.	4G/	4e\	.
!	!	!	!	!LO:TX:t=P:problem:# above	!
.	.	.	4A/	4f#Xi\	2r
!	!	!	!LO:TX:t=P:problem:# above	!	!
.	.	.	4B#Xi\	4g\	.
*	*	*	*custos:A	*	*
!	!	!	!LO:LB:g=original	!	!
=27-	=27-	=27-	=27-	=27-	=27-
2D/	#	2A/	1A	4f#X\	4aa\
.	.	.	.	4e\	4gg\
!	!	!	!	!	!LO:TX:t=P:problem:# above
2D/	.	2A/	.	2d\	4ff#Xi\
.	.	.	.	.	4gg\
!	!	!	!	!LO:TX:t=P:problem:kreska pseudotaktowa	!
2AA/	#	2E/	2r	2c#X/	4ee\
!	!	!	!	!	!LO:TX:t=P:problem:# above
!	!	!	!	!	!LO:TX:t=P:problem:kreska pseudotaktowa
.	.	.	.	.	4ff#Xi\
=28-	=28-	=28-	=28-	=28-	=28-
1D	#	1A	4A/	4f#X\	1dd
.	.	.	4G/	4e\	.
!	!	!	!LO:TX:t=P:problem:# below	!	!
.	.	.	4F#X/	2d\	.
.	.	.	4G/	.	.
!LO:TX:t=P:problem:kreska pseudotaktowa	!	!	!	!	!
2AA/	#	2E/	4E/	2c#X/	2r
.	.	.	4F#/	.	.
*custos:DD	*	*	*	*	*
!LO:LB:g=original	!	!	!	!	!
=29-	=29-	=29-	=29-	=29-	=29-
1.DD	.	1AA	2D/	1d	4dd\
.	.	.	.	.	4ee\
!	!	!	!	!	!LO:TX:t=P:problem:# above
.	.	.	4D/	.	4ff#Xi\
.	.	.	4E/	.	4gg\
.	.	2r	4Fny/	2r	4aa\
!	!	!	!	!	!LO:TX:t=P:problem:kreska pseudotaktowa
.	.	.	4G/	.	4bb\
*	*	*	*	*	*custos:aa
!	!	!	!	!	!LO:LB:g=original
=30-	=30-	=30-	=30-	=30-	=30-
2A\	.	4e\	2.A/	2cny/	1aa
.	.	4d\	.	.	.
2F\	.	4c\	.	2a\	.
.	.	4d\	4Bny\	.	.
!LO:TX:t=P:problem:kreska pseudotaktowa	!	!	!	!	!
2E\	6	4B\	2cny\	4g\	2r
!	!	!	!	!LO:TX:t=P:problem:kreska pseudotaktowa	!
.	.	4c\	.	4a\	.
*	*	*	*	*custos:f#	*
!	!	!	!	!LO:LB:g=original	!
=31-	=31-	=31-	=31-	=31-	=31-
2D/	#	2A/	1d	4f#X\	4aa\
.	.	.	.	4e\	4gg\
!	!	!	!	!	!LO:TX:t=P:problem:# above
2D/	.	2A/	.	2d\	4ff#Xi\
.	.	.	.	.	4gg\
!	!	!	!	!LO:TX:t=P:problem:kreska pseudotaktowa	!
2AA/	#	2E/	2r	2c#X/	4ee\
!	!	!	!	!	!LO:TX:t=P:problem:kreska pseudotaktowa
!	!	!	!	!	!LO:TX:t=P:problem:# above
.	.	.	.	.	4ff#Xi\
=32-	=32-	=32-	=32-	=32-	=32-
1D	#	1A	4A/	4f#X\	2dd\
.	.	.	4G/	4e\	.
.	.	.	4F#X/	2d\	2dd\
.	.	.	4G/	.	.
!LO:TX:t=P:problem:kreska pseudotaktowa	!	!	!	!	!
2AA/	#	2E/	4E/	2e\	2cc#X\
.	.	.	4F#/	.	.
=33-	=33-	=33-	=33-	=33-	=33-
2D/	.	4A/	2D/	2fny\	1dd
.	.	4G/	.	.	.
2BB/	6	4F/	2d\	2g\	.
.	.	4G/	.	.	.
2AA/	.	4E/	2c\	2a\	2r
.	.	4F/	.	.	.
=34-	=34-	=34-	=34-	=34-	=34-
2GG/	.	2D/	4B\	1d	4dd\
.	.	.	4A/	.	4ccny\
2GG/	.	2D/	2G/	.	4b/
.	.	.	.	.	4cc\
!LO:TX:t=P:problem:kreska pseudotaktowa	!	!	!	!LO:TX:t=P:problem:kreska pseudotaktowa	!
2D/	#	2A/	2F#X/	2r	4a/
!	!	!	!	!	!LO:TX:t=P:problem:kreska pseudotaktowa
.	.	.	.	.	4b/
*	*	*custos:D	*custos:B	*	*
!	!	!LO:LB:g=original	!LO:LB:g=original	!	!
=35-	=35-	=35-	=35-	=35-	=35-
1GG	.	1D	4B\	4d\	2g/
.	.	.	4A/	4cny/	.
.	.	.	2G/	4B/	2g/
.	.	.	.	4c/	.
!	!	!	!	!LO:TX:t=P:problem:kreska pseudotaktowa	!
2D/	#	2r	2D/	2A/	2f#X/
=36-	=36-	=36-	=36-	=36-	=36-
2G\	.	4d\	1G	4B/	1g
.	.	4c\	.	4A/	.
2E\	.	4B\	.	4G/	.
.	.	4c\	.	4A/	.
!LO:TX:t=P:problem:kreska pseudotaktowa	!	!	!	!	!
2D/	6	4A/	2r	2B/	2r
.	.	4B\	.	.	.
=37-	=37-	=37-	=37-	=37-	=37-
1C	.	1G	4e\	1c	4gg\
.	.	.	4d\	.	4ffny\
.	.	.	4c\	.	4ee\
.	.	.	4d\	.	4ff\
2G\	.	2d\	2B\	2r	4dd\
.	.	.	.	.	4ee\
*	*	*	*	*custos:g	*
!	!	!	!	!LO:LB:g=original	!LO:LB:g=original
=38-	=38-	=38-	=38-	=38-	=38-
1C	.	1G	4e\	4g\	2cc\
.	.	.	4d\	4f\	.
.	.	.	2c\	4e\	2cc\
.	.	.	.	4f\	.
!LO:TX:t=P:problem:kreska pseudotaktowa	!	!	!	!	!
2G\	.	2r	2G/	4d\	2b/
.	.	.	.	4e\	.
*custos:C	*	*	*	*	*
!LO:LB:g=original	!	!	!	!	!
=39-	=39-	=39-	=39-	=39-	=39-
2C/	.	4G/	4e\	1c	1cc
.	.	4F/	4d\	.	.
2AA/	.	4E/	4c\	.	.
.	.	4F-X/	4d\	.	.
!	!	!	!	!LO:TX:t=P:problem:kreska pseudotaktowa	!
2GG/	.	4D/	4B\	2r	2r
.	.	4E/	4c\	.	.
=40-	=40-	=40-	=40-	=40-	=40-
2FF/	.	2C/	1A	2A/	4aa\
.	.	.	.	.	4gg\
2DD/	.	2AA/	.	2d\	4ff\
.	.	.	.	.	4gg\
!LO:TX:t=P:problem:kreska pseudotaktowa	!	!	!	!	!
2AA/	#	2E/	2r	2c#X/	4ee\
.	.	.	.	.	4ff\
=41-	=41-	=41-	=41-	=41-	=41-
1DD	#	1AA	4f\	4a\	2dd\
.	.	.	4e\	4g\	.
.	.	.	2d\	4f#X\	2dd\
.	.	.	.	4g\	.
2AA/	#	2r	2A/	4e\	2cc#X\
!	!	!	!	!LO:TX:t=P:problem:# above	!
.	.	.	.	4f#Xi\	.
=42-	=42-	=42-	=42-	=42-	=42-
2D/	.	4A/	4f\	1d	1dd
.	.	4G/	4e\	.	.
2BB/	.	4Fny/	4d\	.	.
.	.	4G/	4e\	.	.
*	*	*	*custos:c	*	*
!LO:TX:t=P:problem:kreska pseudotaktowa	!	!	!LO:LB:g=original	!	!
2AA/	.	4E/	4c\	2r	2r
.	.	4F/	4d\	.	.
=43-	=43-	=43-	=43-	=43-	=43-
2GG/	.	2D/	4B\	1.r	4dd\
.	.	.	4A/	.	4ccny\
2GG/	.	2D/	2G/	.	4b/
.	.	.	.	.	4cc\
2D/	#	2A/	2F#X/	.	4a/
.	.	.	.	.	4b/
*	*	*custos:D	*	*	*
!	!	!LO:LB:g=original	!	!	!
=44-	=44-	=44-	=44-	=44-	=44-
1GG	.	1D	4B\	4d\	2g/
.	.	.	4A/	4cny/	.
.	.	.	2G/	4B/	2g/
.	.	.	.	4c/	.
!LO:TX:t=P:problem:kreska pseudotaktowa	!	!	!	!	!
2D/	#	2r	2D/	4A/	2f#X/
.	.	.	.	4B/	.
*	*	*	*	*custos:G	*
!	!	!	!	!LO:LB:g=original	!
=45-	=45-	=45-	=45-	=45-	=45-
2GG/	.	2D/	4B\	4G/	1g
.	.	.	4A/	4A/	.
2GG/	.	2D/	2G/	2B/	.
2D/	#	2A/	2F#X/	2A/	2r
=46-	=46-	=46-	=46-	=46-	=46-
2GG/	.	2D/	4B\	1G	4dd\
.	.	.	4A/	.	4cc\
2GG/	.	2D/	2G/	.	4b/
.	.	.	.	.	4cc\
!LO:TX:t=P:problem:kreska pseudotaktowa	!	!	!	!	!
2D/	#	2A/	2F#X/	2r	4a/
!	!	!	!	!	!LO:TX:t=P:problem:kreska pseudotaktowa
.	.	.	.	.	4b/
*custos:G	*	*	*	*	*custos:g
!LO:LB:g=original	!	!	!	!	!LO:LB:g=original
=47-	=47-	=47-	=47-	=47-	=47-
*M2/2	*	*M2/2	*M2/2	*M2/2	*M2/2
*met(C|)	*	*met(C|)	*met(C|)	*met(C|)	*met(C|)
2G\	.	4d\	2B-X\	2g\	4g/
.	.	4c\	.	.	4a/
4E-X\	.	4B-X\	2e-X\	[2g\	4b-X/
4C/	-	4G/	.	.	4cc\
=48-	=48-	=48-	=48-	=48-	=48-
!LO:TX:t=P:problem:kreska pseudotaktowa	!	!	!	!	!
1D	4#r	1A	2.d\	2g\]	2a/
.	.	.	.	2f#X\	2a/
.	.	.	4c\	.	.
=49-	=49-	=49-	=49-	=49-	=49-
4GG/	.	4D/	2Bny\	[1g	1g
4G\	.	4d\	.	.	.
*	*	*	*custos:B	*	*
!	!	!	!LO:LB:g=original	!	!
4G\	.	4d\	4r	.	.
4G\	.	4d\	4B\	.	.
=50-	=50-	=50-	=50-	=50-	=50-
2G\	.	2d\	4B\	1g]	4r
.	.	.	4B\	.	4gg\
!LO:TX:t=P:problem:kreska pseudotaktowa	!	!	!	!	!
2G\	.	2d\	2B\	.	4gg\
.	.	.	.	.	4gg\
=51-	=51-	=51-	=51-	=51-	=51-
1C	.	1G	4r	4r	1gg
.	.	.	4c\	4e\	.
.	.	.	4c\	4e\	.
.	.	.	4c\	4e\	.
=52-	=52-	=52-	=52-	=52-	=52-
2C/	.	2G/	8c\L	2e\	8r
.	.	.	8eny\	.	8cc\L
.	.	.	8c\	.	8ee\
.	.	.	8d\J	.	8ff\J
4G\	.	8r	4e\	8r	4gg\
.	.	8d\L	.	8B/L	.
!	!	!	!LO:TX:t=P:problem:kreska pseudotaktowa	!	!LO:TX:t=P:problem:kreska pseudotaktowa
8A\L	6	8e\	4r	8c/	4ff\
!LO:TX:t=P:problem:kreska pseudotaktowa	!	!	!	!LO:TX:t=P:problem:kreska pseudotaktowa	!
8B\J	.	8f\J	.	8d/J	.
*	*	*custos:g	*	*	*
!	!	!LO:LB:g=original	!	!	!
=53-	=53-	=53-	=53-	=53-	=53-
2c\	.	4.g\	4r	4.e\	[2ee\
.	.	.	[4c\	.	.
.	.	8f\	.	8d\	.
2A\	.	[4e\	16c\LL]	[4c/	16ee\LL]
.	.	.	16B\	.	16dd\
.	.	.	16A\	.	16cc\
.	.	.	16G\JJ	.	16bny\JJ
!	!	!	!	!	!LO:TX:t=P:problem:kreska pseudotaktowa
.	.	16e\LL]	[4A/	16c/LL]	[4cc\
.	.	16d\	.	16B/	.
.	.	16c\	.	16A/	.
!	!	!LO:TX:t=P:problem:kreska pseudotaktowa	!	!LO:TX:t=P:problem:kreska pseudotaktowa	!
.	.	16Bny\JJ	.	16G/JJ	.
*	*	*	*	*custos:A	*
!	!	!	!	!LO:LB:g=original	!
=54-	=54-	=54-	=54-	=54-	=54-
2F\	.	[4c\	16A/LL]	[4A/	16cc\LL]
.	.	.	16G/	.	16b\JJ
.	.	.	16Fny/	.	16a/LL
.	.	.	16E/JJ	.	16g/JJ
.	.	16c\LL]	[4F/	16A/LL]	[4a/
.	.	16B\	.	16G/	.
.	.	16A\	.	16F/	.
.	.	16G\JJ	.	16E/JJ	.
!LO:TX:t=P:problem:kreska pseudotaktowa	!	!	!	!LO:TX:t=P:problem:mixed beam	!
2D/	.	[4A/	16F/LL]	8F/L	16a/LL]
.	.	.	16E/	.	16g/
.	.	.	16D/	8.fny\J	16fny/
.	.	.	16C/JJ	.	16e/JJ
*	*	*	*	*	*custos:f
!	!	!	!	!	!LO:LB:g=original
!	!	!	!LO:TX:t=P:problem:kreska pseudotaktowa	!	!
.	.	16A/LL]	4D/	.	[4f/
.	.	16G/	.	16e\LL	.
!	!	!LO:TX:t=P:problem:♭ above	!	!	!
.	.	16F-Xi/	.	16d\	.
!	!	!LO:TX:t=P:problem:kreska pseudotaktowa	!	!LO:TX:t=P:problem:kreska pseudotaktowa	!
.	.	16E/JJ	.	16c\JJ	.
*	*	*	*custos:d	*	*
!	!	!	!LO:LB:g=original	!	!
=55-	=55-	=55-	=55-	=55-	=55-
2BB-X/	.	[4F-X/	[4d\	[2d\	16f/LL]
.	.	.	.	.	16e/
.	.	.	.	.	16d/
.	.	.	.	.	16c/JJ
.	.	16F-/LL]	16d\LL]	.	4d/
.	.	16E/	16c\	.	.
!	!	!	!LO:TX:t=P:problem:♭ above	!	!
.	.	16D/	16B-Xi\	.	.
.	.	16C/JJ	16A\JJ	.	.
2GG/	.	4D/	[<4B-X\	16d\LL]	[4dd\
.	.	.	.	16c\	.
.	.	.	.	16B-X\	.
.	.	.	.	16A\JJ	.
!	!	!LO:TX:t=P:problem:kreska pseudotaktowa	!	!LO:TX:t=P:problem:kreska pseudotaktowa	!
.	.	[4d\	16B-/LL]	[4B-X/	16dd\LL]
.	.	.	16A/	.	16cc\
.	.	.	16G/	.	16b-Xi\
!	!	!	!	!	!LO:TX:t=P:problem:kreska pseudotaktowa
!	!	!	!LO:TX:t=P:problem:kreska pseudotaktowa	!	!LO:TX:t=P:problem:♭ above
.	.	.	16F/JJ	.	16a\JJ
*custos:E-	*	*	*	*	*
!LO:LB:g=original	!	!	!	!	!
=56-	=56-	=56-	=56-	=56-	=56-
2E-X\	.	16d\LL]	4G/	16B-/LL]	[4b-X/
.	.	16c\	.	16A/	.
.	.	16B-X\	.	16G/	.
.	.	16A\JJ	.	16F/JJ	.
.	.	[4B-X\	16G/LL	4G/	16b-/LL]
.	.	.	16F/	.	16a/
.	.	.	16E-X/	.	16g/
.	.	.	16D/JJ	.	16f/JJ
!LO:TX:t=P:problem:kreska pseudotaktowa	!	!	!LO:TX:t=P:problem:♭ above	!	!
[2C/	.	16B-\LL]	[4E-Xi/	[4g\	4g/
.	.	16A\JJ	.	.	.
.	.	16G/LL	.	.	.
.	.	16Fny/JJ	.	.	.
!	!	!LO:TX:t=P:problem:kreska pseudotaktowa	!	!	!
.	.	4G/	16E-/LL]	16g\LL]	[4gg\
.	.	.	16D/	16f\	.
!	!	!	!	!LO:TX:t=P:problem:♭ above	!
.	.	.	16C/	16e-Xi\	.
!	!	!	!LO:TX:t=P:problem:kreska pseudotaktowa	!LO:TX:t=P:problem:kreska pseudotaktowa	!
.	.	.	16BB/JJ	16d\JJ	.
*	*	*custos:g	*	*	*
!	!	!LO:LB:g=original	!	!	!
=57-	=57-	=57-	=57-	=57-	=57-
4C/]	.	[4g\	4C/	[4e-X\	16gg\LL]
.	.	.	.	.	16ff\
.	.	.	.	.	16ee\
.	.	.	.	.	16dd\JJ
4c\	.	16g\LL]	[4c\	16e-\LL]	[4ee\
.	.	16f\	.	16d\	.
.	.	16e\	.	16c\	.
.	.	16d\JJ	.	16Bny\JJ	.
*	*	*	*	*custos:c	*
!	!	!	!	!LO:LB:g=original	!
2A\	.	[4e\	16c\LL]	[4c/	16ee\LL]
.	.	.	16Bny\	.	16dd\
.	.	.	16A\	.	16cc\
.	.	.	16G\JJ	.	16bny\JJ
!	!	!	!LO:TX:t=P:problem:kreska pseudotaktowa	!	!LO:TX:t=P:problem:kreska pseudotaktowa
.	.	16e\LL]	[4A/	16c/LL]	[4cc\
.	.	16d\	.	16B/	.
.	.	16c\	.	16A/	.
!	!	!LO:TX:t=P:problem:kreska pseudotaktowa	!	!LO:TX:t=P:problem:kreska pseudotaktowa	!
.	.	16Bny\JJ	.	16G/JJ	.
=58-	=58-	=58-	=58-	=58-	=58-
2F\	.	[4c\	16A/LL]	4A/	16cc/LL]
.	.	.	16G/	.	16b/
.	.	.	16F/	.	16a/
.	.	.	16Eny/JJ	.	16g/JJ
.	.	16c\LL]	[4F/	[4a\	4a/
.	.	16B\	.	.	.
.	.	16A\	.	.	.
.	.	16G\JJ	.	.	.
!LO:TX:t=P:problem:kreska pseudotaktowa	!	!	!	!	!
2D/	.	4A/	16F/LL]	16a\LL]	[4aa\
.	.	.	16E/	16g\	.
.	.	.	16D/	16f\	.
.	.	.	16C/JJ	16eny\JJ	.
!	!	!	!LO:TX:t=P:problem:kreska pseudotaktowa	!LO:TX:t=P:problem:kreska pseudotaktowa	!
.	.	[4a\	4D/	[4f\	16aa\LL]
.	.	.	.	.	16gg\
.	.	.	.	.	16ff\
!	!	!	!	!	!LO:TX:t=P:problem:kreska pseudotaktowa
.	.	.	.	.	16ee\JJ
*	*	*	*custos:d	*	*custos:ff
!	!	!	!LO:LB:g=original	!	!LO:LB:g=original
=59-	=59-	=59-	=59-	=59-	=59-
2d\	.	16a\LL]	4d\	16f\LL]	[4ff\
.	.	16g\	.	16e\	.
!	!	!LO:TX:t=P:problem:♭ above	!	!	!
.	.	16f-Xi\	.	16d\	.
.	.	16d\JJ	.	16c\JJ	.
.	.	4f-X\	16d\LL	[4d\	16ff\LL]
.	.	.	16c\	.	16ee\
!	!	!	!LO:TX:t=P:problem:♭ above	!	!
.	.	.	16B-X\	.	16dd\
.	.	.	16A\JJ	.	16cc\JJ
2B-X\	.	16f-\LL	[<4B-X\	16d\LL]	[4dd\
.	.	16e\	.	16c\	.
.	.	16d\	.	16B-X\	.
.	.	16c\JJ	.	16A\JJ	.
!	!	!	!	!LO:TX:t=P:problem:kreska pseudotaktowa	!
.	.	[4d\	16B-/LL]	[>4B-X/	16dd\LL]
.	.	.	16A/	.	16cc\
.	.	.	16G/	.	16b-X\
!	!	!	!LO:TX:t=P:problem:kreska pseudotaktowa	!	!LO:TX:t=P:problem:kreska pseudotaktowa
.	.	.	16F/JJ	.	16a\JJ
=60-	=60-	=60-	=60-	=60-	=60-
4G\	.	16d\LL]	2G/	16B-/LL]	[4b-X/
.	.	16c\	.	16A/	.
!	!	!LO:TX:t=P:problem:♭ above	!	!	!
.	.	16B-Xi\	.	16G/	.
.	.	16A\JJ	.	16F/JJ	.
2E-X\	.	2B-X\	.	4G/	16b-/LL]
.	.	.	.	.	16a/
.	.	.	.	.	16g/
.	.	.	.	.	16f/JJ
.	.	.	8r	8r	4g/
.	.	.	8e-X\L	8g\L	.
!LO:TX:t=P:problem:kreska pseudotaktowa	!	!	!	!	!LO:TX:t=P:problem:kreska pseudotaktowa
4F\	6:5	4c\	8d\	8f\	4a/
!	!	!	!	!LO:TX:t=P:problem:kreska pseudotaktowa	!
.	.	.	8c\J	8e\J	.
=61-	=61-	=61-	=61-	=61-	=61-
2G\	5:6	2d\	2Bny\	4d\	4bny/
.	.	.	.	4e\	4cc\
!	!	!	!	!LO:TX:t=P:problem:# above	!
2D/	4#	2A/	8r	4f#Xi\	4dd\
.	.	.	8d\L	.	.
!	!	!	!	!LO:TX:t=P:problem:kreska pseudotaktowa	!
.	.	.	8c\	4g\	4ee\
!	!	!	!LO:TX:t=P:problem:kreska pseudotaktowa	!	!
.	.	.	8B\J	.	.
*	*	*custos:A	*	*custos:a	*
!	!	!LO:LB:g=original	!	!LO:LB:g=original	!
=62-	=62-	=62-	=62-	=62-	=62-
[2D/	5:6 #:4	1A	4A/	4a\	4ff#X\
.	.	.	4B\	4d\	4gg\
2D/]	5:6 #	.	4F#X/	2d\	4aa\
.	.	.	4G/	.	4bb\
=63-	=63-	=63-	=63-	=63-	=63-
4D/	#	4r	4A/	1d	4ff#X\
4GG/	.	4D/	4B\	.	2gg\
2D/	4#r	2A/	2A/	.	.
!	!	!	!	!	!LO:TX:t=P:problem:kreska pseudotaktowa
.	.	.	.	.	4ff#X\
=64-	=64-	=64-	=64-	=64-	=64-
[2GG/	.	1D	1G	4Bny/	4gg\
.	.	.	.	4g\	4g/
2GG/]	5:6 3:4	.	.	4g\	4b/
.	.	.	.	4e\	4cc\
*	*	*	*custos:d	*	*custos:dd
!	!	!	!LO:LB:g=original	!	!LO:LB:g=original
=65-	=65-	=65-	=65-	=65-	=65-
2D/	.	4r	4r	2d\	2dd\
.	.	4A/	4d\	.	.
4Eny\	6	4Bny\	4c\	2r	2r
4F#X\	.	4c#X\	4A/	.	.
=66-	=66-	=66-	=66-	=66-	=66-
4G\	.	4d\	1G	1r	4r
4GG/	.	4D/	.	.	4g/
4G\	.	4d\	.	.	4b/
!LO:TX:t=P:problem:kreska pseudotaktowa	!	!	!	!	!LO:TX:t=P:problem:kreska pseudotaktowa
4E\	6	4B\	.	.	4cc\
=67-	=67-	=67-	=67-	=67-	=67-
2D/	#	2A/	4r	4r	2dd\
.	.	.	4d\	4d\	.
4D/	.	4r	4d\	4f#X\	2r
!	!	!	!	!LO:TX:t=P:problem:# above	!
4E\	.	4B\	4B\	4g#Xi\	.
=68-	=68-	=68-	=68-	=68-	=68-
4.AA/	.	4.E/	2A/	2a\	8r
.	.	.	.	.	8a/L
.	.	.	.	.	8cc/
8BBny/	.	8F/	.	.	8dd/J
!LO:TX:t=P:problem:kreska pseudotaktowa	!	!	!	!	!LO:TX:t=P:problem:kreska pseudotaktowa
2C/	.	2G/	2r	8r	2ee\
.	.	.	.	8c\L	.
.	.	.	.	8e\	.
!	!	!	!	!LO:TX:t=P:problem:kreska pseudotaktowa	!
.	.	.	.	8fny\J	.
=69-	=69-	=69-	=69-	=69-	=69-
1GG	.	1D	4r	4.gny\	8r
.	.	.	.	.	8g/L
.	.	.	4G/	.	8b/
.	.	.	.	16f\LL	8cc/J
.	.	.	.	16e\JJ	.
.	.	.	4B\	4d\	4dd\
!	!	!	!	!LO:TX:t=P:problem:kreska pseudotaktowa	!
.	.	.	4c\	4e\	8cc\L
!	!	!	!	!	!LO:TX:t=P:problem:kreska pseudotaktowa
.	.	.	.	.	8b\J
=70-	=70-	=70-	=70-	=70-	=70-
2D/	.	4r	1d	2f\	8a\L
.	.	.	.	.	8dd\
.	.	4A/	.	.	8ffny\
.	.	.	.	.	8gg\J
4Fny\	6	4.cny\	.	8r	4aa\
.	.	.	.	8f\L	.
!LO:TX:t=P:problem:kreska pseudotaktowa	!	!	!	!	!
4G\	.	.	.	8e\	8gg\L
!	!	!	!	!	!LO:TX:t=P:problem:kreska pseudotaktowa
.	.	8d\	.	8d\J	8ff\J
*	*	*	*	*custos:c	*
!	!	!	!	!LO:LB:g=original	!
=71-	=71-	=71-	=71-	=71-	=71-
2A\	.	2e\	8r	1c	2ee\
.	.	.	8A\L	.	.
.	.	.	8c\	.	.
.	.	.	8d\J	.	.
!	!	!	!LO:TX:t=P:problem:kreska pseudotaktowa	!	!
4AA/	.	8r	2eny\	.	4r
.	.	8G/L	.	.	.
8E\L	6	8B/	.	.	4g/
8F\J	.	8c/J	.	.	.
*	*	*custos:d	*	*	*custos:b
!	!	!LO:LB:g=original	!	!	!LO:LB:g=original
=72-	=72-	=72-	=72-	=72-	=72-
2.G\	.	2d\	4r	1r	4.b/
.	.	.	4G/	.	.
.	.	.	.	.	8cc\
.	.	8r	4B\	.	2dd\
.	.	8d\L	.	.	.
8F\L	.	8c\	4c\	.	.
!LO:TX:t=P:problem:kreska pseudotaktowa	!	!	!	!	!
8E\J	.	8B\J	.	.	.
*custos:D	*	*	*custos:d	*	*
!LO:LB:g=original	!	!	!LO:LB:g=original	!	!
=73-	=73-	=73-	=73-	=73-	=73-
2.D/	.	2A/	4d\	8r	2r
.	.	.	.	8d\L	.
.	.	.	4D/	8f\	.
.	.	.	.	8g\J	.
!	!	!	!	!LO:TX:t=P:problem:kreska pseudotaktowa	!
.	.	8r	4Fny/	2a\	8r
.	.	8A/L	.	.	8ff\L
8C/L	.	8G/	4G/	.	8ee\
!	!	!	!	!	!LO:TX:t=P:problem:kreska pseudotaktowa
8BB/J	.	8F/J	.	.	8dd\J
=74-	=74-	=74-	=74-	=74-	=74-
4AA/	.	4E/	2A/	8r	2cc\
.	.	.	.	8a\L	.
4BB/	.	4F/	.	8g\	.
.	.	.	.	8f\J	.
!	!	!	!LO:TX:t=P:problem:kreska pseudotaktowa	!	!
4C/	.	4G/	2r	4e\	8r
.	.	.	.	.	8ee\L
!	!	!	!	!LO:TX:t=P:problem:kreska pseudotaktowa	!
!	!	!	!	!LO:TX:t=P:problem:# above	!
8BB/L	.	8F/L	.	4f#Xi\	8dd\
!LO:TX:t=P:problem:kreska pseudotaktowa	!	!	!	!	!LO:TX:t=P:problem:kreska pseudotaktowa
8AA/J	.	8E/J	.	.	8cc\J
=75-	=75-	=75-	=75-	=75-	=75-
2.GG/	.	2D/	8r	8g\L	2b/
.	.	.	8G/L	8e\	.
.	.	.	8F/	8d\	.
.	.	.	8E/J	8c\J	.
.	.	8r	4D/	4B/	8r
.	.	8D/L	.	.	8b/L
8FF/L	.	8C/	2A/	4c/	8a/
8EE/J	.	8BB/J	.	.	8g/J
=76-	=76-	=76-	=76-	=76-	=76-
2DD/	#	2AA/	.	1d	2f#X/
.	.	.	4A/	.	.
2GG/	-	2D/	2B-X\	.	1g
=77-	=77-	=77-	=77-	=77-	=77-
1DD	4#r	1AA	1A	1d	.
.	.	.	.	.	2f#X/
=78-	=78-	=78-	=78-	=78-	=78-
!!!OMD:
!!!OMD-mod: Finis
!LO:TX:b:i:t=Finis.:mod=	!	!LO:TX:b:i:t=Finis.:mod=	!LO:TX:b:i:t=Finis.:mod=	!LO:TX:b:i:t=Finis.:mod=	!LO:TX:b:i:t=Finis.:mod=
!LO:MO:mod=0GG;	!	!LO:MO:mod=0D;	!LO:MO:mod=0G;	!LO:MO:mod=0B;	!LO:MO:mod=0g;
0GGl;;	.	0Dl;;	0Gl;;	0Bl;;	0gl;;
==	==	==	==	==	==
*-	*-	*-	*-	*-	*-
!!!system-decoration: [(s1,s2,s3,s4)]s5
!!!RDF**kern: > = above
!!!RDF**kern: < = below
!!!RDF**kern: i = editorial accidental
!!!RDF**kern: l = terminal long
!!!ENC: Anastazja Marusiak
!!!END: 2022-11-07
!!!ENC: Jan Barakat
!!!END: 2022-11-25
!!!YEC: Copyright 2022 Narodowy Instytut Fryderyka Chopina (https://polishscores.org)
!!!YEM: License CC-BY-4.0 (https://creativecommons.org/licenses/by/4.0)
!!!filter-modern: sic -sq | autostem -r | tie -si | shed -e "s/^custos:/Xcustos:/I" | shed -e "s/^(\d+[\/\\]right)/$1yy/I; s/^(\d+[\/\\]left)/$1yy/I" | shed -e "s/-//B" | shed -e "s/TX(.*):t=P:/tx$1:t=P:/LG" | modori -m |
